X: 33
T:Salmon Tails
% Nottingham Music Database
S:via PR
M:4/4
L:1/4
K:G
"G"GE DE|G2 G3/2A/2|"G"Bd "D"AB/2A/2|"C"GE "D"DE|"G"GE DE|G2 G3/2A/2|\
"G"Bd "D7"AB/2A/2|"G"G2 G2:|
"G"Bd d2|"C"ce e2|"G"dB "D"AB/2A/2|"C"GE "D"D2|"G"Bd d2|"C"ce e3/2f/2|"G"gf ed\
|"D7"ef "G"g2|
"G"Bd d2|"C"ce e2|"G"dB "D"AB/2A/2|"C"GE "D"D2|"G"GE DE|G2 G3/2A/2|\
"G"Bd "D7"AB/2A/2|"G"G2 G2||


